src/topics/icons/pipedrive.svg

<svg height="117" preserveAspectRatio="xMidYMid" viewBox="0 0 512 117" width="512" xmlns="http://www.w3.org/2000/svg"><path d="m80.2140333.28608388h16.3224998v17.19332652h-16.3224998z" fill="#525254"/><path d="m365.996107.28608388h16.322499v17.19332652h-16.322499z" fill="#525254"/><path d="m44.137599 23.6490765c-10.2880163 0-16.2376178 4.6166392-19.1078879 7.8060029-.3411-2.7476628-2.1534885-6.312708-9.2269909-6.312708h-15.36050349v16.0772851h6.29541716c1.06574103 0 1.40841292.3395281 1.40841292 1.4036972v73.4119523h18.30936811v-27.5536501c0-.7435037-.014147-1.4382788-.0330097-2.060747 2.8592669 2.6266272 8.3215826 6.2435448 16.8537984 6.2435448 17.8959612 0 30.408201-14.1863021 30.408201-34.5045448 0-20.6404801-11.8803403-34.5108324-29.5468056-34.5108324m-3.7190903 53.0669871c-9.8573187 0-14.3356316-9.4376242-14.3356316-18.1820451 0-13.7728951 7.5324941-18.6819058 14.5792744-18.6819058 8.64382 0 14.4566671 7.4523278 14.4566671 18.5530109 0 12.6584256-7.3894522 18.31094-14.7003099 18.31094" fill="#231f1f"/><path d="m97.7877571 73.8174995v-38.8995477c0-6.5767854-3.1689291-9.7755804-9.6608324-9.7755804h-16.3586533v16.0772851h6.3017047c1.0610254 0 1.4021254.3395281 1.4021254 1.4021254v38.7706527c0 6.6695269 3.0714719 9.7740085 9.6451135 9.7740085h16.379088v-15.9373869h-6.3032767c-1.0138687 0-1.4052692-.4039756-1.4052692-1.4115567" fill="#231f1f"/><path d="m145.614065 23.6490765c-10.29116 0-16.232902 4.6166392-19.115747 7.8060029-.3411-2.7476628-2.144058-6.312708-9.215988-6.312708h-15.369935v16.0772851h6.301705c1.061025 0 1.405269.3395281 1.405269 1.4036972v73.4119523h18.317227v-27.5536501c0-.7435037-.018862-1.4382788-.042441-2.060747 2.848264 2.6266272 8.327871 6.2435448 16.856943 6.2435448 17.897533 0 30.403485-14.1863021 30.403485-34.5045448 0-20.6404801-11.872481-34.5108324-29.540518-34.5108324m-3.734809 53.0669871c-9.830597 0-14.324629-9.4376242-14.324629-18.1820451 0-13.7728951 7.530922-18.6819058 14.58399-18.6819058 8.642248 0 14.453524 7.4523278 14.453524 18.5530109 0 12.6584256-7.381593 18.31094-14.712885 18.31094" fill="#231f1f"/><path d="m208.904621 23.6490765c-19.724069 0-33.515827 14.1941615-33.515827 34.5108324 0 19.9881459 14.88265 34.5045448 35.387947 34.5045448 16.132301 0 25.988048-9.5492283 26.404599-9.9532039l.735644-.7262129-7.972623-13.2368809-1.186777 1.1223291c-.07545.056588-7.312429 6.7261149-16.871089 6.7261149-9.175119 0-15.891802-5.5990702-17.474695-14.3843602h43.414014l.103745-1.1993516c.028294-.1650484.391401-4.0617623.391401-5.9653204 0-18.7777911-11.822181-31.3984913-29.416339-31.3984913m-13.812193 24.9804668c1.986869-6.4793283 6.952467-10.151262 13.812193-10.151262 5.511044 0 9.758289 4.1922291 10.503365 10.151262z" fill="#231f1f"/><path d="m304.907768 73.8174995v-63.7574072c0-6.57206966-3.212942-9.77400842-9.788156-9.77400842h-16.363369v16.07728512h6.300133c1.059454 0 1.409985.3426718 1.409985 1.406841v11.5250933c-2.702078-2.4411443-7.980483-5.6462268-17.064432-5.6462268-17.767066 0-30.164558 14.1941615-30.164558 34.5108324 0 20.64048 11.88034 34.5045448 29.546806 34.5045448 10.102533 0 15.92324-4.6905181 18.766788-7.9553324.370966 2.8498355 2.214792 6.4573218 9.066658 6.4573218h15.861936v-15.935815h-6.168094c-1.015441 0-1.403697-.4055475-1.403697-1.4131286m-32.649716 2.8985641c-8.706695 0-14.340347-7.2857075-14.340347-18.5561547 0-10.9544975 5.861576-18.3077962 14.590278-18.3077962 9.895044 0 14.330916 9.1248181 14.330916 18.1883326 0 13.7760389-7.538782 18.6756183-14.580847 18.6756183" fill="#231f1f"/><path d="m353.315675 24.2684009c-7.618949 0-14.635863 4.3981466-18.79351 11.4056297v-1.5090139c0-5.9826111-3.304112-9.0242172-9.785012-9.0242172h-15.739329v16.078857h6.293845c1.061026 0 1.411557.3379562 1.411557 1.4036972v48.5446613h18.306224v-26.4250332c0-3.4801632.443273-6.8314315 1.309384-9.9264818 2.75395-9.112243 10.078955-12.3566228 16.001835-12.3566228 2.100044 0 3.631064.2232083 3.653071.2294959l1.53102.2310677v-18.1993358l-1.11447-.1886267c-.056588-.0110032-1.606471-.2640774-3.074615-.2640774" fill="#231f1f"/><path d="m383.561971 73.8174995v-38.8995477c0-6.5767854-3.151638-9.7755804-9.648257-9.7755804h-14.800911v16.0772851h4.731387c1.067313 0 1.406841.3395281 1.406841 1.4021254v38.7706527c0 6.6695269 3.073044 9.7740085 9.657689 9.7740085h16.36494v-15.9373869h-6.303276c-1.015441 0-1.408413-.4039756-1.408413-1.4115567" fill="#231f1f"/><path d="m452.358856 41.2196565v-16.0772851h-9.769293c-5.705959 0-8.768 1.9774369-10.575672 6.8392909l-11.935357 33.3350591c-.411835 1.237077-.800091 2.6219116-1.128616 3.95173-.34896-1.336106-.759223-2.7382313-1.211927-3.9768802l-11.935357-33.3209121c-1.831251-4.9121545-4.787975-6.8282877-10.5741-6.8282877h-10.383901v16.0772851h2.69579c1.427276 0 1.886267.4841419 2.227367 1.378547l18.474417 48.5682396h20.585464l18.47756-48.5682396c.337956-.8944051.809523-1.378547 2.241514-1.378547z" fill="#231f1f"/><path d="m511.196249 61.0128882c.015719-.1650484.386685-4.0617623.386685-5.9653204 0-18.7777911-11.826897-31.3984913-29.425771-31.3984913-19.724068 0-33.506395 14.1941615-33.506395 34.5108324 0 19.9881459 14.865359 34.5045448 35.376944 34.5045448 16.133873 0 25.995907-9.5492283 26.40617-9.9532039l.745076-.7262129-7.958476-13.2368809-1.210355 1.1223291c-.062876.056588-7.33758 6.7261149-16.861658 6.7261149-9.181406 0-15.899662-5.5990702-17.48727-14.3843602h43.428161zm-42.849706-12.3833449c2.002587-6.4793283 6.952467-10.151262 13.81062-10.151262 5.525192 0 9.756718 4.1922291 10.506509 10.151262z" fill="#231f1f"/><g fill="#3b3b3c"><path d="m353.315675 24.2684009c-5.918164 0-11.429209 2.6769277-15.566421 7.1316623 3.49431-.0314378 7.012198-.0597318 10.528515-.0597318 3.090335 0 6.153947.028294 9.226991.0471567v-6.6663831l-1.11447-.1886267c-.056588-.0110032-1.606471-.2640774-3.074615-.2640774"/><path d="m432.013891 31.9816623-.752935 2.118907c7.07979.4872857 14.102992 1.0248719 21.0979 1.6253336v-10.5835315h-9.767721c-5.705959 0-8.769572 1.9774369-10.577244 6.8392909"/><path d="m44.137599 23.6490765c-10.2880163 0-16.2391896 4.6166392-19.1078879 7.804431-.3426718-2.7460909-2.1534885-6.3111361-9.2269909-6.3111361h-15.36050349v16.0772851h6.29541716c1.06574103 0 1.40841292.3395281 1.40841292 1.4021254v40.9099942c8.41432411-2.9268581 17.03456571-5.7483996 25.82142761-8.4614808-5.3805775-3.0793314-7.8845973-9.9987886-7.8845973-16.5378486 0-13.7713233 7.5324941-18.680334 14.5792744-18.680334 8.64382 0 14.4566671 7.4523278 14.4566671 18.5530109 0 4.6622241-1.0122968 8.359308-2.6454899 11.1855652 6.8392909-1.9365678 13.7728952-3.8149757 20.8133879-5.6226485.227924-1.8752641.397688-3.8055443.397688-5.8081314 0-20.6404801-11.8803403-34.5108324-29.5468056-34.5108324"/><path d="m88.1269247 25.1423714h-16.3586533v16.0772851h6.3017047c1.0594535 0 1.4005535.3395281 1.4005535 1.4036972v19.8026631c6.0360554-1.5027263 12.1318426-2.9614397 18.3172275-4.3667089v-23.1413561c0-6.5752135-3.1689291-9.7755804-9.6608324-9.7755804"/><path d="m80.2140333.28608388h16.3224998v17.19332652h-16.3224998z"/><path d="m145.615637 23.6490765c-10.29116 0-16.232902 4.6166392-19.115748 7.804431-.342671-2.7460909-2.144057-6.3111361-9.217559-6.3111361h-15.368363v16.0772851h6.300133c1.061025 0 1.406841.3395281 1.406841 1.4021254v12.8250458c6.1901-1.3125277 12.466655-2.5857581 18.780935-3.81026 2.0969-8.4976342 8.041786-11.784455 13.736741-11.784455 5.155798 0 9.263145 2.6879309 11.768737 7.1803909 6.318995-1.0531659 12.680432-2.0686065 19.096884-3.0290309-4.170222-12.5719717-14.158008-20.3543962-27.388601-20.3543962"/><path d="m208.904621 23.6490765c-14.411082 0-25.621798 7.5875102-30.629838 19.5936017 7.782425-1.1207572 15.645016-2.1676355 23.57677-3.1390632 2.029309-1.0578816 4.391859-1.6237618 7.053068-1.6237618 1.009153 0 1.945999.1886267 2.854551.4479885 7.19611-.8142387 14.458239-1.56403 21.776956-2.2509457-5.031618-8.1659655-13.717879-13.0278195-24.631507-13.0278195"/><path d="m295.119612.28608388h-16.363369v16.07728512h6.300133c1.057882 0 1.409985.3426718 1.409985 1.406841v11.5250933c-2.702078-2.4411443-7.980483-5.6462268-17.064432-5.6462268-9.943772 0-18.202479 4.4468751-23.551619 11.9353564 19.348387-1.6284775 39.047305-2.7963913 59.057458-3.4990259v-22.0253147c0-6.57206966-3.212942-9.77400842-9.788156-9.77400842"/><path d="m324.738725 25.1423714h-15.742473v6.8282877c8.353021-.2656493 16.743766-.4558479 25.206819-.5517332-.927415-4.15136-4.079053-6.2765545-9.464346-6.2765545"/><path d="m365.996107.28608388h16.322499v17.19332652h-16.322499z"/><path d="m373.915285 25.1423714h-14.80091v6.2561199c8.084227.0723069 16.130729.2200646 24.133218.4385572-.910124-4.4720254-3.961161-6.6946771-9.332308-6.6946771"/><path d="m395.228534 25.1423714h-10.383901v6.7434057c7.108084.2106331 14.173727.4699949 21.198501.7906603l-.2405-.7057783c-1.831251-4.9121545-4.787975-6.8282877-10.5741-6.8282877"/><path d="m482.157163 23.6490765c-11.246868 0-20.543023 4.6260705-26.480049 12.3581946 8.598235.754507 17.144598 1.6017554 25.595076 2.5338858 1.301524.1430419 2.57947.2750806 3.86056.4244101 8.154962.9226991 16.221899 1.9365678 24.219672 3.0274591-4.189085-11.3333228-14.090416-18.3439496-27.195259-18.3439496"/></g></svg>

<?xml version="1.0" encoding="UTF-8" standalone="no"?>
<svg width="512px" height="117px" viewBox="0 0 512 117" version="1.1" xmlns="http://www.w3.org/2000/svg" xmlns:xlink="http://www.w3.org/1999/xlink" preserveAspectRatio="xMidYMid">
	<g>
		<path d="M80.2140333,0.286083876 L96.5365331,0.286083876 L96.5365331,17.4794104 L80.2140333,17.4794104 L80.2140333,0.286083876 Z" fill="#525254"></path>
		<path d="M365.996107,0.286083876 L382.318606,0.286083876 L382.318606,17.4794104 L365.996107,17.4794104 L365.996107,0.286083876 Z" fill="#525254"></path>
		<path d="M44.137599,23.6490765 C33.8495827,23.6490765 27.8999812,28.2657157 25.0297111,31.4550794 C24.6886111,28.7074166 22.8762226,25.1423714 15.8027202,25.1423714 L0.442216706,25.1423714 L0.442216706,41.2196565 L6.73763387,41.2196565 C7.8033749,41.2196565 8.14604679,41.5591846 8.14604679,42.6233537 L8.14604679,116.035306 L26.4554149,116.035306 L26.4554149,88.4816559 C26.4554149,87.7381522 26.4412679,87.0433771 26.4224052,86.4209089 C29.2816721,89.0475361 34.7439878,92.6644537 43.2762036,92.6644537 C61.1721648,92.6644537 73.6844046,78.4781516 73.6844046,58.1599089 C73.6844046,37.5194288 61.8040643,23.6490765 44.137599,23.6490765 M40.4185087,76.7160636 C30.56119,76.7160636 26.0828771,67.2784394 26.0828771,58.5340185 C26.0828771,44.7611234 33.6153712,39.8521127 40.6621515,39.8521127 C49.3059715,39.8521127 55.1188186,47.3044405 55.1188186,58.4051236 C55.1188186,71.0635492 47.7293664,76.7160636 40.4185087,76.7160636" fill="#231F1F"></path>
		<path d="M97.7877571,73.8174995 L97.7877571,34.9179518 C97.7877571,28.3411664 94.618828,25.1423714 88.1269247,25.1423714 L71.7682714,25.1423714 L71.7682714,41.2196565 L78.0699761,41.2196565 C79.1310015,41.2196565 79.4721015,41.5591846 79.4721015,42.6217819 L79.4721015,81.3924346 C79.4721015,88.0619615 82.5435734,91.1664431 89.117215,91.1664431 L105.496303,91.1664431 L105.496303,75.2290562 L99.1930263,75.2290562 C98.1791576,75.2290562 97.7877571,74.8250806 97.7877571,73.8174995" fill="#231F1F"></path>
		<path d="M145.614065,23.6490765 C135.322905,23.6490765 129.381163,28.2657157 126.498318,31.4550794 C126.157218,28.7074166 124.35426,25.1423714 117.28233,25.1423714 L101.912395,25.1423714 L101.912395,41.2196565 L108.2141,41.2196565 C109.275125,41.2196565 109.619369,41.5591846 109.619369,42.6233537 L109.619369,116.035306 L127.936596,116.035306 L127.936596,88.4816559 C127.936596,87.7381522 127.917734,87.0433771 127.894155,86.4209089 C130.742419,89.0475361 136.222026,92.6644537 144.751098,92.6644537 C162.648631,92.6644537 175.154583,78.4781516 175.154583,58.1599089 C175.154583,37.5194288 163.282102,23.6490765 145.614065,23.6490765 M141.879256,76.7160636 C132.048659,76.7160636 127.554627,67.2784394 127.554627,58.5340185 C127.554627,44.7611234 135.085549,39.8521127 142.138617,39.8521127 C150.780865,39.8521127 156.592141,47.3044405 156.592141,58.4051236 C156.592141,71.0635492 149.210548,76.7160636 141.879256,76.7160636" fill="#231F1F"></path>
		<path d="M208.904621,23.6490765 C189.180552,23.6490765 175.388794,37.843238 175.388794,58.1599089 C175.388794,78.1480548 190.271444,92.6644537 210.776741,92.6644537 C226.909042,92.6644537 236.764789,83.1152254 237.18134,82.7112498 L237.916984,81.9850369 L229.944361,68.748156 L228.757584,69.8704851 C228.682134,69.9270731 221.445155,76.5966 211.886495,76.5966 C202.711376,76.5966 195.994693,70.9975298 194.4118,62.2122398 L237.825814,62.2122398 L237.929559,61.0128882 C237.957853,60.8478398 238.32096,56.9511259 238.32096,55.0475678 C238.32096,36.2697767 226.498779,23.6490765 208.904621,23.6490765 M195.092428,48.6295433 C197.079297,42.150215 202.044895,38.4782813 208.904621,38.4782813 C214.415665,38.4782813 218.66291,42.6705104 219.407986,48.6295433 L195.092428,48.6295433" fill="#231F1F"></path>
		<path d="M304.907768,73.8174995 L304.907768,10.0600923 C304.907768,3.48802264 301.694826,0.286083876 295.119612,0.286083876 L278.756243,0.286083876 L278.756243,16.363369 L285.056376,16.363369 C286.11583,16.363369 286.466361,16.7060408 286.466361,17.77021 L286.466361,29.2953033 C283.764283,26.854159 278.485878,23.6490765 269.401929,23.6490765 C251.634863,23.6490765 239.237371,37.843238 239.237371,58.1599089 C239.237371,78.8003889 251.117711,92.6644537 268.784177,92.6644537 C278.88671,92.6644537 284.707417,87.9739356 287.550965,84.7091213 C287.921931,87.5589568 289.765757,91.1664431 296.617623,91.1664431 L312.479559,91.1664431 L312.479559,75.2306281 L306.311465,75.2306281 C305.296024,75.2306281 304.907768,74.8250806 304.907768,73.8174995 M272.258052,76.7160636 C263.551357,76.7160636 257.917705,69.4303561 257.917705,58.1599089 C257.917705,47.2054114 263.779281,39.8521127 272.507983,39.8521127 C282.403027,39.8521127 286.838899,48.9769308 286.838899,58.0404453 C286.838899,71.8164842 279.300117,76.7160636 272.258052,76.7160636" fill="#231F1F"></path>
		<path d="M353.315675,24.2684009 C345.696726,24.2684009 338.679812,28.6665475 334.522165,35.6740306 L334.522165,34.1650167 C334.522165,28.1824056 331.218053,25.1407995 324.737153,25.1407995 L308.997824,25.1407995 L308.997824,41.2196565 L315.291669,41.2196565 C316.352695,41.2196565 316.703226,41.5576127 316.703226,42.6233537 L316.703226,91.168015 L335.00945,91.168015 L335.00945,64.7429818 C335.00945,61.2628186 335.452723,57.9115503 336.318834,54.8165 C339.072784,45.704257 346.397789,42.4598772 352.320669,42.4598772 C354.420713,42.4598772 355.951733,42.6830855 355.97374,42.6893731 L357.50476,42.9204408 L357.50476,24.721105 L356.39029,24.5324783 C356.333702,24.5214751 354.783819,24.2684009 353.315675,24.2684009" fill="#231F1F"></path>
		<path d="M383.561971,73.8174995 L383.561971,34.9179518 C383.561971,28.3411664 380.410333,25.1423714 373.913714,25.1423714 L359.112803,25.1423714 L359.112803,41.2196565 L363.84419,41.2196565 C364.911503,41.2196565 365.251031,41.5591846 365.251031,42.6217819 L365.251031,81.3924346 C365.251031,88.0619615 368.324075,91.1664431 374.90872,91.1664431 L391.27366,91.1664431 L391.27366,75.2290562 L384.970384,75.2290562 C383.954943,75.2290562 383.561971,74.8250806 383.561971,73.8174995" fill="#231F1F"></path>
		<path d="M452.358856,41.2196565 L452.358856,25.1423714 L442.589563,25.1423714 C436.883604,25.1423714 433.821563,27.1198083 432.013891,31.9816623 L420.078534,65.3167214 C419.666699,66.5537984 419.278443,67.938633 418.949918,69.2684514 C418.600958,67.9323454 418.190695,66.5302201 417.737991,65.2915712 L405.802634,31.9706591 C403.971383,27.0585046 401.014659,25.1423714 395.228534,25.1423714 L384.844633,25.1423714 L384.844633,41.2196565 L387.540423,41.2196565 C388.967699,41.2196565 389.42669,41.7037984 389.76779,42.5982035 L408.242207,91.1664431 L428.827671,91.1664431 L447.305231,42.5982035 C447.643187,41.7037984 448.114754,41.2196565 449.546745,41.2196565 L452.358856,41.2196565" fill="#231F1F"></path>
		<path d="M511.196249,61.0128882 C511.211968,60.8478398 511.582934,56.9511259 511.582934,55.0475678 C511.582934,36.2697767 499.756037,23.6490765 482.157163,23.6490765 C462.433095,23.6490765 448.650768,37.843238 448.650768,58.1599089 C448.650768,78.1480548 463.516127,92.6644537 484.027712,92.6644537 C500.161585,92.6644537 510.023619,83.1152254 510.433882,82.7112498 L511.178958,81.9850369 L503.220482,68.748156 L502.010127,69.8704851 C501.947251,69.9270731 494.672547,76.5966 485.148469,76.5966 C475.967063,76.5966 469.248807,70.9975298 467.661199,62.2122398 L511.08936,62.2122398 L511.196249,61.0128882 L511.196249,61.0128882 Z M468.346543,48.6295433 C470.34913,42.150215 475.29901,38.4782813 482.157163,38.4782813 C487.682355,38.4782813 491.913881,42.6705104 492.663672,48.6295433 L468.346543,48.6295433 L468.346543,48.6295433 Z" fill="#231F1F"></path>
		<path d="M353.315675,24.2684009 C347.397511,24.2684009 341.886466,26.9453286 337.749254,31.4000632 C341.243564,31.3686254 344.761452,31.3403314 348.277769,31.3403314 C351.368104,31.3403314 354.431716,31.3686254 357.50476,31.3874881 L357.50476,24.721105 L356.39029,24.5324783 C356.333702,24.5214751 354.783819,24.2684009 353.315675,24.2684009" fill="#3B3B3C"></path>
		<path d="M432.013891,31.9816623 L431.260956,34.1005693 C438.340746,34.587855 445.363948,35.1254412 452.358856,35.7259029 L452.358856,25.1423714 L442.591135,25.1423714 C436.885176,25.1423714 433.821563,27.1198083 432.013891,31.9816623" fill="#3B3B3C"></path>
		<path d="M44.137599,23.6490765 C33.8495827,23.6490765 27.8984094,28.2657157 25.0297111,31.4535075 C24.6870393,28.7074166 22.8762226,25.1423714 15.8027202,25.1423714 L0.442216706,25.1423714 L0.442216706,41.2196565 L6.73763387,41.2196565 C7.8033749,41.2196565 8.14604679,41.5591846 8.14604679,42.6217819 L8.14604679,83.5317761 C16.5603709,80.604918 25.1806125,77.7833765 33.9674744,75.0702953 C28.5868969,71.9909639 26.0828771,65.0715067 26.0828771,58.5324467 C26.0828771,44.7611234 33.6153712,39.8521127 40.6621515,39.8521127 C49.3059715,39.8521127 55.1188186,47.3044405 55.1188186,58.4051236 C55.1188186,63.0673477 54.1065218,66.7644316 52.4733287,69.5906888 C59.3126196,67.654121 66.2462239,65.7757131 73.2867166,63.9680403 C73.5146406,62.0927762 73.6844046,60.162496 73.6844046,58.1599089 C73.6844046,37.5194288 61.8040643,23.6490765 44.137599,23.6490765" fill="#3B3B3C"></path>
		<path d="M88.1269247,25.1423714 L71.7682714,25.1423714 L71.7682714,41.2196565 L78.0699761,41.2196565 C79.1294296,41.2196565 79.4705296,41.5591846 79.4705296,42.6233537 L79.4705296,62.4260168 C85.506585,60.9232905 91.6023722,59.4645771 97.7877571,58.0593079 L97.7877571,34.9179518 C97.7877571,28.3427383 94.618828,25.1423714 88.1269247,25.1423714" fill="#3B3B3C"></path>
		<path d="M80.2140333,0.286083876 L96.5365331,0.286083876 L96.5365331,17.4794104 L80.2140333,17.4794104 L80.2140333,0.286083876 Z" fill="#3B3B3C"></path>
		<path d="M145.615637,23.6490765 C135.324477,23.6490765 129.382735,28.2657157 126.499889,31.4535075 C126.157218,28.7074166 124.355832,25.1423714 117.28233,25.1423714 L101.913967,25.1423714 L101.913967,41.2196565 L108.2141,41.2196565 C109.275125,41.2196565 109.620941,41.5591846 109.620941,42.6217819 L109.620941,55.4468277 C115.811041,54.1343 122.087596,52.8610696 128.401876,51.6365677 C130.498776,43.1389335 136.443662,39.8521127 142.138617,39.8521127 C147.294415,39.8521127 151.401762,42.5400436 153.907354,47.0325036 C160.226349,45.9793377 166.587786,44.9638971 173.004238,44.0034727 C168.834016,31.431501 158.84623,23.6490765 145.615637,23.6490765" fill="#3B3B3C"></path>
		<path d="M208.904621,23.6490765 C194.493539,23.6490765 183.282823,31.2365867 178.274783,43.2426782 C186.057208,42.121921 193.919799,41.0750427 201.851553,40.103615 C203.880862,39.0457334 206.243412,38.4798532 208.904621,38.4798532 C209.913774,38.4798532 210.85062,38.6684799 211.759172,38.9278417 C218.955282,38.113603 226.217411,37.3638117 233.536128,36.676896 C228.50451,28.5109305 219.818249,23.6490765 208.904621,23.6490765" fill="#3B3B3C"></path>
		<path d="M295.119612,0.286083876 L278.756243,0.286083876 L278.756243,16.363369 L285.056376,16.363369 C286.114258,16.363369 286.466361,16.7060408 286.466361,17.77021 L286.466361,29.2953033 C283.764283,26.854159 278.485878,23.6490765 269.401929,23.6490765 C259.458157,23.6490765 251.19945,28.0959516 245.85031,35.5844329 C265.198697,33.9559554 284.897615,32.7880416 304.907768,32.085407 L304.907768,10.0600923 C304.907768,3.48802264 301.694826,0.286083876 295.119612,0.286083876" fill="#3B3B3C"></path>
		<path d="M324.738725,25.1423714 L308.996252,25.1423714 L308.996252,31.9706591 C317.349273,31.7050098 325.740018,31.5148112 334.203071,31.4189259 C333.275656,27.2675659 330.124018,25.1423714 324.738725,25.1423714" fill="#3B3B3C"></path>
		<path d="M365.996107,0.286083876 L382.318606,0.286083876 L382.318606,17.4794104 L365.996107,17.4794104 L365.996107,0.286083876 Z" fill="#3B3B3C"></path>
		<path d="M373.915285,25.1423714 L359.114375,25.1423714 L359.114375,31.3984913 C367.198602,31.4707982 375.245104,31.6185559 383.247593,31.8370485 C382.337469,27.3650231 379.286432,25.1423714 373.915285,25.1423714" fill="#3B3B3C"></path>
		<path d="M395.228534,25.1423714 L384.844633,25.1423714 L384.844633,31.8857771 C391.952717,32.0964102 399.01836,32.355772 406.043134,32.6764374 L405.802634,31.9706591 C403.971383,27.0585046 401.014659,25.1423714 395.228534,25.1423714" fill="#3B3B3C"></path>
		<path d="M482.157163,23.6490765 C470.910295,23.6490765 461.61414,28.275147 455.677114,36.0072711 C464.275349,36.7617781 472.821712,37.6090265 481.27219,38.5411569 C482.573714,38.6841988 483.85166,38.8162375 485.13275,38.965567 C493.287712,39.8882661 501.354649,40.9021348 509.352422,41.9930261 C505.163337,30.6597033 495.262006,23.6490765 482.157163,23.6490765" fill="#3B3B3C"></path>
	</g>
</svg>
